COLOR/action 16/16/go-jump.svg

<svg height="16" width="16" xmlns="http://www.w3.org/2000/svg"><g fill="#fb7c38" stroke="none"><path d="m7 .5c-.6869257 0-1.2669419.06180078-1.7890625.2578125-.5314924.19191617-.9793381.565913-1.2597656 1.0566406l-.0019531.0019531-.0019532.0039063c-.5069994.9177057-.4324456 1.925064-.4472656 3.1679687v.0019532 10.5097656h2v-10.4941406-.0058594c.0074776-.6215997.0228872-1.1334369.0585938-1.515625.0358442-.3836634.1098512-.6416597.140625-.6972656v-.0019532h.0019531c.0622393-.1138954.0189604-.0856277.2070312-.15625.1635694-.0610238.5352699-.1289062 1.0917969-.1289062h2c.556527 0 .9282274.067882 1.091797.1289062.187747.070499.144816.041938.208984.1582032.03133.056762.104782.3137284.140625.6972656.035706.3820623.051116.8940288.058594 1.515625v2.5019531h-2.2792969l.3242188.7070313c.3531521.7712549.747504 1.5560806 1.1816406 2.3535156l.0019531.001953v.001953c.4353334.787842.8847524 1.548952 1.3496094 2.283203l.425781.675782.421875-.679688c.453609-.732442.897089-1.492096 1.332031-2.28125v-.001953h.001954c.434584-.7964007.8318-1.5788907 1.193359-2.3496094l.333984-.7128906h-.787109-1.5v-2.5097656-.0019532c-.01482-1.2431696.0583-2.2506456-.447266-3.1679687l-.001953-.0039063-.001953-.0019531c-.280333-.4907302-.728272-.86472443-1.259766-1.0566406-.522715-.19579025-1.103088-.2578125-1.789062-.2578125z" fill="#fb7c38"/><path d="m7 .5c-.6869257 0-1.2669419.06180078-1.7890625.2578125-.5314924.19191617-.9793381.565913-1.2597656 1.0566406l-.0019531.0019531-.0019532.0039063c-.5069994.9177057-.4324456 1.925064-.4472656 3.1679687v.0019532.4980468c.01482-1.2429047-.0597401-2.2502636.4472656-3.1679687l.0019532-.0039063.0019531-.0019531c.2804275-.4907276.7282732-.8647244 1.2597656-1.0566406.5221206-.1960117 1.1021368-.2578125 1.7890625-.2578125h2c.685974 0 1.266348.0620222 1.789062.2578125.531495.1919162.979527.565911 1.259766 1.0566406l.001953.0019531.001953.0039063c.505566.9173231.432446 1.9247992.447266 3.1679687v-.4980468-.0019532c-.01482-1.2431696.0583-2.2506456-.447266-3.1679687l-.001953-.0039063-.001953-.0019531c-.280333-.4907302-.728271-.86472443-1.259766-1.0566406-.522714-.19579025-1.103088-.2578125-1.789062-.2578125zm5.5 7v.5h1.5.552734l.234375-.5h-.787109zm-4.2792969.0019531.2285157.5h2.0507812v-.5z" fill="#fff" opacity=".3"/><path d="m7 2c-.556527 0-.9282244.0678792-1.0917969.1289062-.1880712.0706221-.1447922.0423546-.2070312.15625h-.0019531v.0019532c-.0307738.0556059-.1047808.3136022-.140625.6972656-.0357066.3821881-.0511162.8940253-.0585938 1.515625v.0058594.4941406c.0074776-.6215997.0228872-1.1334369.0585938-1.515625.0358442-.3836634.1098512-.6416597.140625-.6972656v-.0019532h.0019531c.0622393-.1138953.0189604-.0856276.2070312-.15625.1635694-.0610238.5352699-.1289062 1.0917969-.1289062h2c.556527 0 .9282273.067882 1.091797.1289062.187747.0704991.144816.041938.208984.1582032.03133.056762.104782.3137284.140625.6972656.035706.3820623.051116.8940288.058594 1.515625v-.5c-.007478-.6215962-.022888-1.1335627-.058594-1.515625-.035843-.3835372-.109295-.6405036-.140625-.6972656-.064168-.1162652-.021237-.0877042-.208984-.1582032-.1635697-.0610242-.53527-.1289062-1.091797-.1289062zm7.552734 5.5-.099609.2128906c-.361559.7707187-.758775 1.5532087-1.193359 2.3496094h-.001954v.001953c-.434942.789154-.878422 1.548808-1.332031 2.28125l-.421875.679688-.425781-.675782c-.464857-.734251-.914276-1.495361-1.3496094-2.283203v-.001953l-.0019531-.001953c-.4341366-.797435-.8284885-1.5822607-1.1816406-2.3535156l-.0957031-.2070313h-.2285157l.3242188.7070313c.3531521.7712549.747504 1.5560806 1.1816406 2.3535156l.0019531.001953v.001953c.4353334.787842.8847524 1.548952 1.3496094 2.283203l.425781.675782.421875-.679688c.453609-.732442.89709-1.492096 1.332031-2.28125v-.001953h.001954c.434584-.7964007.8318-1.5788907 1.193359-2.3496094l.333984-.7128906zm-11.052734 7.5v.5h2v-.5z" fill="#000" opacity=".2"/></g></svg>

<?xml version="1.0" encoding="UTF-8" standalone="no"?>
<svg
   xmlns:dc="http://purl.org/dc/elements/1.1/"
   xmlns:cc="http://creativecommons.org/ns#"
   xmlns:rdf="http://www.w3.org/1999/02/22-rdf-syntax-ns#"
   xmlns:svg="http://www.w3.org/2000/svg"
   xmlns="http://www.w3.org/2000/svg"
   xmlns:sodipodi="http://sodipodi.sourceforge.net/DTD/sodipodi-0.dtd"
   xmlns:inkscape="http://www.inkscape.org/namespaces/inkscape"
   height="16"
   width="16"
   version="1.1"
   id="svg8"
   sodipodi:docname="go-jump.svg"
   inkscape:version="0.92.4 (5da689c313, 2019-01-14)">
  <metadata
     id="metadata14">
    <rdf:RDF>
      <cc:Work
         rdf:about="">
        <dc:format>image/svg+xml</dc:format>
        <dc:type
           rdf:resource="http://purl.org/dc/dcmitype/StillImage" />
      </cc:Work>
    </rdf:RDF>
  </metadata>
  <defs
     id="defs12" />
  <sodipodi:namedview
     pagecolor="#ffffff"
     bordercolor="#666666"
     borderopacity="1"
     objecttolerance="10"
     gridtolerance="10"
     guidetolerance="10"
     inkscape:pageopacity="0"
     inkscape:pageshadow="2"
     inkscape:window-width="1920"
     inkscape:window-height="1016"
     id="namedview10"
     showgrid="false"
     inkscape:zoom="59.928571"
     inkscape:cx="9"
     inkscape:cy="9.3349225"
     inkscape:window-x="0"
     inkscape:window-y="27"
     inkscape:window-maximized="1"
     inkscape:current-layer="g6" />
  <g
     fill="#fb7c38"
     id="g6"
     style="stroke:#fb7c38;stroke-opacity:1">
    <path
       style="color:#000000;font-style:normal;font-variant:normal;font-weight:normal;font-stretch:normal;font-size:medium;line-height:normal;font-family:sans-serif;font-variant-ligatures:normal;font-variant-position:normal;font-variant-caps:normal;font-variant-numeric:normal;font-variant-alternates:normal;font-feature-settings:normal;text-indent:0;text-align:start;text-decoration:none;text-decoration-line:none;text-decoration-style:solid;text-decoration-color:#000000;letter-spacing:normal;word-spacing:normal;text-transform:none;writing-mode:lr-tb;direction:ltr;text-orientation:mixed;dominant-baseline:auto;baseline-shift:baseline;text-anchor:start;white-space:normal;shape-padding:0;clip-rule:nonzero;display:inline;overflow:visible;visibility:visible;opacity:1;isolation:auto;mix-blend-mode:normal;color-interpolation:sRGB;color-interpolation-filters:linearRGB;solid-color:#000000;solid-opacity:1;vector-effect:none;fill:#fb7c38;fill-opacity:1;fill-rule:nonzero;stroke:none;stroke-width:1;stroke-linecap:butt;stroke-linejoin:miter;stroke-miterlimit:4;stroke-dasharray:none;stroke-dashoffset:0;stroke-opacity:1;color-rendering:auto;image-rendering:auto;shape-rendering:auto;text-rendering:auto;enable-background:accumulate"
       d="M 7 0.5 C 6.3130743 0.5 5.7330581 0.56180078 5.2109375 0.7578125 C 4.6794451 0.94972867 4.2315994 1.3237255 3.9511719 1.8144531 L 3.9492188 1.8164062 L 3.9472656 1.8203125 C 3.4402662 2.7380182 3.51482 3.7453765 3.5 4.9882812 L 3.5 4.9902344 L 3.5 15.5 L 5.5 15.5 L 5.5 5.0058594 L 5.5 5 C 5.5074776 4.3784003 5.5228872 3.8665631 5.5585938 3.484375 C 5.594438 3.1007116 5.668445 2.8427153 5.6992188 2.7871094 L 5.6992188 2.7851562 L 5.7011719 2.7851562 C 5.7634112 2.6712608 5.7201323 2.6995285 5.9082031 2.6289062 C 6.0717725 2.5678824 6.443473 2.5 7 2.5 L 9 2.5 C 9.556527 2.5 9.9282274 2.567882 10.091797 2.6289062 C 10.279544 2.6994052 10.236613 2.6708442 10.300781 2.7871094 C 10.332111 2.8438714 10.405563 3.1008378 10.441406 3.484375 C 10.477112 3.8664373 10.492522 4.3784038 10.5 5 L 10.5 7.5019531 L 8.2207031 7.5019531 L 8.5449219 8.2089844 C 8.898074 8.9802393 9.2924259 9.765065 9.7265625 10.5625 L 9.7285156 10.564453 L 9.7285156 10.566406 C 10.163849 11.354248 10.613268 12.115358 11.078125 12.849609 L 11.503906 13.525391 L 11.925781 12.845703 C 12.37939 12.113261 12.82287 11.353607 13.257812 10.564453 L 13.257812 10.5625 L 13.259766 10.5625 C 13.69435 9.7660993 14.091566 8.9836093 14.453125 8.2128906 L 14.787109 7.5 L 14 7.5 L 12.5 7.5 L 12.5 4.9902344 L 12.5 4.9882812 C 12.48518 3.7451116 12.5583 2.7376356 12.052734 1.8203125 L 12.050781 1.8164062 L 12.048828 1.8144531 C 11.768495 1.3237229 11.320556 0.94972867 10.789062 0.7578125 C 10.266347 0.56202225 9.685974 0.5 9 0.5 L 7 0.5 z "
       id="path2" />
    <path
       style="color:#000000;font-style:normal;font-variant:normal;font-weight:normal;font-stretch:normal;font-size:medium;line-height:normal;font-family:sans-serif;font-variant-ligatures:normal;font-variant-position:normal;font-variant-caps:normal;font-variant-numeric:normal;font-variant-alternates:normal;font-feature-settings:normal;text-indent:0;text-align:start;text-decoration:none;text-decoration-line:none;text-decoration-style:solid;text-decoration-color:#000000;letter-spacing:normal;word-spacing:normal;text-transform:none;writing-mode:lr-tb;direction:ltr;text-orientation:mixed;dominant-baseline:auto;baseline-shift:baseline;text-anchor:start;white-space:normal;shape-padding:0;clip-rule:nonzero;display:inline;overflow:visible;visibility:visible;opacity:0.3;isolation:auto;mix-blend-mode:normal;color-interpolation:sRGB;color-interpolation-filters:linearRGB;solid-color:#000000;solid-opacity:1;vector-effect:none;fill:#ffffff;fill-opacity:1;fill-rule:nonzero;stroke:none;stroke-width:1;stroke-linecap:butt;stroke-linejoin:miter;stroke-miterlimit:4;stroke-dasharray:none;stroke-dashoffset:0;stroke-opacity:1;color-rendering:auto;image-rendering:auto;shape-rendering:auto;text-rendering:auto;enable-background:accumulate"
       d="M 7 0.5 C 6.3130743 0.5 5.7330581 0.56180078 5.2109375 0.7578125 C 4.6794451 0.94972867 4.2315994 1.3237255 3.9511719 1.8144531 L 3.9492188 1.8164062 L 3.9472656 1.8203125 C 3.4402662 2.7380182 3.51482 3.7453765 3.5 4.9882812 L 3.5 4.9902344 L 3.5 5.4882812 C 3.51482 4.2453765 3.4402599 3.2380176 3.9472656 2.3203125 L 3.9492188 2.3164062 L 3.9511719 2.3144531 C 4.2315994 1.8237255 4.6794451 1.4497287 5.2109375 1.2578125 C 5.7330581 1.0618008 6.3130743 1 7 1 L 9 1 C 9.685974 1 10.266348 1.0620222 10.789062 1.2578125 C 11.320557 1.4497287 11.768589 1.8237235 12.048828 2.3144531 L 12.050781 2.3164062 L 12.052734 2.3203125 C 12.5583 3.2376356 12.48518 4.2451117 12.5 5.4882812 L 12.5 4.9902344 L 12.5 4.9882812 C 12.48518 3.7451116 12.5583 2.7376356 12.052734 1.8203125 L 12.050781 1.8164062 L 12.048828 1.8144531 C 11.768495 1.3237229 11.320557 0.94972867 10.789062 0.7578125 C 10.266348 0.56202225 9.685974 0.5 9 0.5 L 7 0.5 z M 12.5 7.5 L 12.5 8 L 14 8 L 14.552734 8 L 14.787109 7.5 L 14 7.5 L 12.5 7.5 z M 8.2207031 7.5019531 L 8.4492188 8.0019531 L 10.5 8.0019531 L 10.5 7.5019531 L 8.2207031 7.5019531 z "
       id="path826" />
    <path
       style="color:#000000;font-style:normal;font-variant:normal;font-weight:normal;font-stretch:normal;font-size:medium;line-height:normal;font-family:sans-serif;font-variant-ligatures:normal;font-variant-position:normal;font-variant-caps:normal;font-variant-numeric:normal;font-variant-alternates:normal;font-feature-settings:normal;text-indent:0;text-align:start;text-decoration:none;text-decoration-line:none;text-decoration-style:solid;text-decoration-color:#000000;letter-spacing:normal;word-spacing:normal;text-transform:none;writing-mode:lr-tb;direction:ltr;text-orientation:mixed;dominant-baseline:auto;baseline-shift:baseline;text-anchor:start;white-space:normal;shape-padding:0;clip-rule:nonzero;display:inline;overflow:visible;visibility:visible;opacity:0.2;isolation:auto;mix-blend-mode:normal;color-interpolation:sRGB;color-interpolation-filters:linearRGB;solid-color:#000000;solid-opacity:1;vector-effect:none;fill:#000000;fill-opacity:1;fill-rule:nonzero;stroke:none;stroke-width:1;stroke-linecap:butt;stroke-linejoin:miter;stroke-miterlimit:4;stroke-dasharray:none;stroke-dashoffset:0;stroke-opacity:1;color-rendering:auto;image-rendering:auto;shape-rendering:auto;text-rendering:auto;enable-background:accumulate"
       d="M 7 2 C 6.443473 2 6.0717756 2.0678792 5.9082031 2.1289062 C 5.7201319 2.1995283 5.7634109 2.1712608 5.7011719 2.2851562 L 5.6992188 2.2851562 L 5.6992188 2.2871094 C 5.668445 2.3427153 5.594438 2.6007116 5.5585938 2.984375 C 5.5228872 3.3665631 5.5074776 3.8784003 5.5 4.5 L 5.5 4.5058594 L 5.5 5 C 5.5074776 4.3784003 5.5228872 3.8665631 5.5585938 3.484375 C 5.594438 3.1007116 5.668445 2.8427153 5.6992188 2.7871094 L 5.6992188 2.7851562 L 5.7011719 2.7851562 C 5.7634112 2.6712609 5.7201323 2.6995286 5.9082031 2.6289062 C 6.0717725 2.5678824 6.443473 2.5 7 2.5 L 9 2.5 C 9.556527 2.5 9.9282273 2.567882 10.091797 2.6289062 C 10.279544 2.6994053 10.236613 2.6708442 10.300781 2.7871094 C 10.332111 2.8438714 10.405563 3.1008378 10.441406 3.484375 C 10.477112 3.8664373 10.492522 4.3784038 10.5 5 L 10.5 4.5 C 10.492522 3.8784038 10.477112 3.3664373 10.441406 2.984375 C 10.405563 2.6008378 10.332111 2.3438714 10.300781 2.2871094 C 10.236613 2.1708442 10.279544 2.1994052 10.091797 2.1289062 C 9.9282273 2.067882 9.556527 2 9 2 L 7 2 z M 14.552734 7.5 L 14.453125 7.7128906 C 14.091566 8.4836093 13.69435 9.2660993 13.259766 10.0625 L 13.257812 10.0625 L 13.257812 10.064453 C 12.82287 10.853607 12.37939 11.613261 11.925781 12.345703 L 11.503906 13.025391 L 11.078125 12.349609 C 10.613268 11.615358 10.163849 10.854248 9.7285156 10.066406 L 9.7285156 10.064453 L 9.7265625 10.0625 C 9.2924259 9.265065 8.898074 8.4802393 8.5449219 7.7089844 L 8.4492188 7.5019531 L 8.2207031 7.5019531 L 8.5449219 8.2089844 C 8.898074 8.9802393 9.2924259 9.765065 9.7265625 10.5625 L 9.7285156 10.564453 L 9.7285156 10.566406 C 10.163849 11.354248 10.613268 12.115358 11.078125 12.849609 L 11.503906 13.525391 L 11.925781 12.845703 C 12.37939 12.113261 12.822871 11.353607 13.257812 10.564453 L 13.257812 10.5625 L 13.259766 10.5625 C 13.69435 9.7660993 14.091566 8.9836093 14.453125 8.2128906 L 14.787109 7.5 L 14.552734 7.5 z M 3.5 15 L 3.5 15.5 L 5.5 15.5 L 5.5 15 L 3.5 15 z "
       id="path832" />
  </g>
</svg>
